src/assets/icons/tab-bar/new.svg

<?xml version="1.0" encoding="UTF-8"?>
<svg width="32px" height="32px" viewBox="0 0 32 32" version="1.1" xmlns="http://www.w3.org/2000/svg" xmlns:xlink="http://www.w3.org/1999/xlink">
    <!-- Generator: Sketch 57.1 (83088) - https://sketch.com -->
    <title>icons/tab bar/new</title>
    <desc>Created with Sketch.</desc>
    <g id="icons/tab-bar/new" stroke="none" stroke-width="1" >
        <path d="M16,3 C25.9092395,3 29,6.56500545 29,16 C29,25.4349945 25.9092395,29 16,29 C6.0907605,29 3,25.4349945 3,16 C3,6.56500545 6.0907605,3 16,3 Z M16,5 C7.39463038,5 5,7.46520762 5,16 C5,24.5347924 7.39463038,27 16,27 C24.6053696,27 27,24.5347924 27,16 C27,7.46520762 24.6053696,5 16,5 Z M16,10 C16.5522847,10 17,10.4477153 17,11 L17,15 L21,15 C21.5522847,15 22,15.4477153 22,16 C22,16.5522847 21.5522847,17 21,17 L17,17 L17,21 C17,21.5522847 16.5522847,22 16,22 C15.4477153,22 15,21.5522847 15,21 L15,17 L11,17 C10.4477153,17 10,16.5522847 10,16 C10,15.4477153 10.4477153,15 11,15 L15,15 L15,11 C15,10.4477153 15.4477153,10 16,10 Z" id="Combined-Shape" fill="#4D6EFF"></path>
    </g>
</svg>

<svg xmlns="http://www.w3.org/2000/svg" width="32" height="32">
  <path fill="#4D6EFF" d="M16 3c9.91 0 13 3.565 13 13s-3.09 13-13 13S3 25.435 3 16 6.09 3 16 3zm0 2C7.395 5 5 7.465 5 16s2.395 11 11 11 11-2.465 11-11S24.605 5 16 5zm0 5a1 1 0 0 1 1 1v4h4a1 1 0 0 1 0 2h-4v4a1 1 0 0 1-2 0v-4h-4a1 1 0 0 1 0-2h4v-4a1 1 0 0 1 1-1z"/>
</svg>
